Simply-Cyan-Circles/scalable/apps/gnome-panel-window-menu.svg

<svg xmlns="http://www.w3.org/2000/svg" width="48" height="48" viewBox="0 0 12.7 12.7"><path fill="#5beedc" d="M6.344.073a6.29 6.29 0 0 0-6.29 6.29 6.29 6.29 0 0 0 6.29 6.288 6.29 6.29 0 0 0 6.29-6.289 6.29 6.29 0 0 0-6.29-6.29zm-.018.936a5.407 5.407 0 0 1 5.407 5.407 5.407 5.407 0 0 1-5.407 5.407A5.407 5.407 0 0 1 .92 6.416 5.407 5.407 0 0 1 6.326 1.01zM5.071 2.684a.34.34 0 0 0-.341.341v2.217H2.855a.34.34 0 0 0-.341.34v4.093a.34.34 0 0 0 .34.34H7.63a.34.34 0 0 0 .341-.34v-2.21l1.875-.007a.34.34 0 0 0 .341-.34V3.025a.34.34 0 0 0-.34-.341H5.07zm0 1.109h4.774c.048 0 .086.038.086.085v3.24a.085.085 0 0 1-.086.085l-1.875.006V5.583a.34.34 0 0 0-.341-.341h-2.66l.017-1.365c0-.047.038-.084.085-.084zM2.855 6.35h4.774c.047 0 .085.038.085.085v3.24a.085.085 0 0 1-.085.085H2.855a.085.085 0 0 1-.086-.085v-3.24c0-.047.038-.085.086-.085zm2.386.16c-.408-.008-.842.148-.974.455-.076.171-.005.478.252.478.15 0 .218-.097.23-.186.008-.067-.02-.126-.036-.181-.018-.064.061-.186.147-.236.072-.042.148-.056.159-.059a.606.606 0 0 1 .624.243c.108.167-.011.42-.181.667-.17.246-.353.526-.352.824 0 .113-.01.151-.003.197.006.037.126.032.22.015-.009-.288.056-.567.328-.765.287-.224.565-.504.535-.835-.006-.318-.377-.569-.777-.604a1.393 1.393 0 0 0-.172-.013zm-.02 2.605c-.246-.013-.417.267-.269.446.133.197.505.148.569-.075.066-.174-.094-.374-.3-.37z"/></svg>

<?xml version="1.0" encoding="UTF-8" standalone="no"?>
<svg
   xmlns:dc="http://purl.org/dc/elements/1.1/"
   xmlns:cc="http://creativecommons.org/ns#"
   xmlns:rdf="http://www.w3.org/1999/02/22-rdf-syntax-ns#"
   xmlns:svg="http://www.w3.org/2000/svg"
   xmlns="http://www.w3.org/2000/svg"
   xmlns:sodipodi="http://sodipodi.sourceforge.net/DTD/sodipodi-0.dtd"
   xmlns:inkscape="http://www.inkscape.org/namespaces/inkscape"
   width="48"
   height="48"
   viewBox="0 0 12.7 12.7"
   version="1.1"
   id="svg4"
   sodipodi:docname="gnome-panel-window-menu.svg"
   inkscape:version="0.92.4 (5da689c313, 2019-01-14)">
  <metadata
     id="metadata10">
    <rdf:RDF>
      <cc:Work
         rdf:about="">
        <dc:format>image/svg+xml</dc:format>
        <dc:type
           rdf:resource="http://purl.org/dc/dcmitype/StillImage" />
        <dc:title></dc:title>
      </cc:Work>
    </rdf:RDF>
  </metadata>
  <defs
     id="defs8" />
  <sodipodi:namedview
     pagecolor="#ffffff"
     bordercolor="#666666"
     borderopacity="1"
     objecttolerance="10"
     gridtolerance="10"
     guidetolerance="10"
     inkscape:pageopacity="0"
     inkscape:pageshadow="2"
     inkscape:window-width="1087"
     inkscape:window-height="480"
     id="namedview6"
     showgrid="false"
     inkscape:zoom="4.9166667"
     inkscape:cx="2.1355932"
     inkscape:cy="24"
     inkscape:window-x="0"
     inkscape:window-y="25"
     inkscape:window-maximized="0"
     inkscape:current-layer="svg4" />
  <path
     d="m 6.344,0.073 a 6.29,6.29 0 0 0 -6.29,6.29 6.29,6.29 0 0 0 6.29,6.288 6.29,6.29 0 0 0 6.29,-6.289 6.29,6.29 0 0 0 -6.29,-6.29 z M 6.326,1.009 A 5.407,5.407 0 0 1 11.733,6.416 5.407,5.407 0 0 1 6.326,11.823 5.407,5.407 0 0 1 0.92,6.416 5.407,5.407 0 0 1 6.326,1.01 Z M 5.071,2.684 A 0.34,0.34 0 0 0 4.73,3.025 V 5.242 H 2.855 a 0.34,0.34 0 0 0 -0.341,0.34 v 4.093 a 0.34,0.34 0 0 0 0.34,0.34 H 7.63 A 0.34,0.34 0 0 0 7.971,9.675 V 7.465 L 9.846,7.458 a 0.34,0.34 0 0 0 0.341,-0.34 V 3.025 A 0.34,0.34 0 0 0 9.847,2.684 H 5.07 Z m 0,1.109 h 4.774 c 0.048,0 0.086,0.038 0.086,0.085 v 3.24 A 0.085,0.085 0 0 1 9.845,7.203 L 7.97,7.209 V 5.583 A 0.34,0.34 0 0 0 7.629,5.242 H 4.969 L 4.986,3.877 C 4.986,3.83 5.024,3.793 5.071,3.793 Z M 2.855,6.35 h 4.774 c 0.047,0 0.085,0.038 0.085,0.085 v 3.24 A 0.085,0.085 0 0 1 7.629,9.76 H 2.855 A 0.085,0.085 0 0 1 2.769,9.675 V 6.435 C 2.769,6.388 2.807,6.35 2.855,6.35 Z M 5.241,6.51 C 4.833,6.502 4.399,6.658 4.267,6.965 4.191,7.136 4.262,7.443 4.519,7.443 4.669,7.443 4.737,7.346 4.749,7.257 4.757,7.19 4.729,7.131 4.713,7.076 4.695,7.012 4.774,6.89 4.86,6.84 4.932,6.798 5.008,6.784 5.019,6.781 A 0.606,0.606 0 0 1 5.643,7.024 C 5.751,7.191 5.632,7.444 5.462,7.691 5.292,7.937 5.109,8.217 5.11,8.515 5.11,8.628 5.1,8.666 5.107,8.712 5.113,8.749 5.233,8.744 5.327,8.727 5.318,8.439 5.383,8.16 5.655,7.962 5.942,7.738 6.22,7.458 6.19,7.127 6.184,6.809 5.813,6.558 5.413,6.523 A 1.393,1.393 0 0 0 5.241,6.51 Z M 5.221,9.115 C 4.975,9.102 4.804,9.382 4.952,9.561 5.085,9.758 5.457,9.709 5.521,9.486 5.587,9.312 5.427,9.112 5.221,9.116 Z"
     id="path2"
     inkscape:connector-curvature="0"
     style="fill:#5beedc" />
</svg>
